X: 47
T:Foster's Hornpipe. BF13.046
M:4/4
L:1/8
Q:160
S:J.Lishman()MS,c1825,Lakes,Browne Coll.
R:Hornpipe
O:England
A:Lakes
N:
N:reason to suppose is copied from the original MSs, although at present
N:we have not had the opportunity to check it's accuracy. CGP..
Z:vmp.Chris Partington.
K:A
E2|A2A2Acec|B2B2Bdfd|E2E2EFGA|BcdB AGFE|!
A2A2Acec|BABc dcde|fefd cBAG|A2A2A2:|!
|:cd|ecAc egae|fgaff2e2|EFGA Bcde|fdBA AGFE|!
CEAc dcBA|GABc dcde|fefd cBAG|A2A2A2:|]
